icons/actions/22/edit-paste.svg

<svg xmlns="http://www.w3.org/2000/svg" viewBox="0 0 22 22">
  <defs id="defs3051">
    <style type="text/css" id="current-color-scheme">
      .ColorScheme-Text {
        color:#4d4d4d;
      }
      </style>
  </defs>
 <path 
    style="fill:currentColor;fill-opacity:1;stroke:none" 
	d="m7 3v2h-2-1v14h1 13v-1-13h-1-2v-2h-8m-2 3h1v2h10v-2h1v12h-12v-12m2 3v1h8v-1h-8m0 3v1h6v-1h-6m0 3v1h3v-1h-3" 
    class="ColorScheme-Text"
    />  
</svg>

<?xml version="1.0"?>
<!-- Created with Inkscape (http://www.inkscape.org/) -->
<svg xmlns:dc="http://purl.org/dc/elements/1.1/" xmlns:cc="http://creativecommons.org/ns#" xmlns:rdf="http://www.w3.org/1999/02/22-rdf-syntax-ns#" xmlns:svg="http://www.w3.org/2000/svg" xmlns="http://www.w3.org/2000/svg" xmlns:sodipodi="http://sodipodi.sourceforge.net/DTD/sodipodi-0.dtd" xmlns:inkscape="http://www.inkscape.org/namespaces/inkscape" width="22" height="22" id="svg3815" version="1.1" inkscape:version="0.48+devel r" sodipodi:docname="edit-paste.svg">
  <defs id="defs3817">
    <style type="text/css" id="current-color-scheme">
      .ColorScheme-Text {
        color:#4d4d4d;
      }
      .ColorScheme-Background {
        color:#eff0f1;
      }
      .ColorScheme-Highlight {
        color:#3daee9;
      }
      .ColorScheme-ViewText {
        color:#31363b;
      }
      .ColorScheme-ViewBackground {
        color:#fcfcfc;
      }
      .ColorScheme-ViewHover {
        color:#93cee9;
      }
      .ColorScheme-ViewFocus{
        color:#3daee9;
      }
      .ColorScheme-ButtonText {
        color:#31363b;
      }
      .ColorScheme-ButtonBackground {
        color:#eff0f1;
      }
      .ColorScheme-ButtonHover {
        color:#93cee9;
      }
      .ColorScheme-ButtonFocus{
        color:#3daee9;
      }
      </style>
  </defs>
  <sodipodi:namedview id="base" pagecolor="#ffffff" bordercolor="#666666" borderopacity="1.0" inkscape:pageopacity="0.0" inkscape:pageshadow="2" inkscape:zoom="51.860373" inkscape:cx="13.029532" inkscape:cy="12.606268" inkscape:document-units="px" inkscape:current-layer="layer1" showgrid="true" fit-margin-top="0" fit-margin-left="0" fit-margin-right="0" fit-margin-bottom="0" inkscape:window-width="1366" inkscape:window-height="718" inkscape:window-x="-2" inkscape:window-y="23" inkscape:window-maximized="1" inkscape:showpageshadow="false" borderlayer="false">
    <sodipodi:guide position="2.0000044,19.999979" orientation="18,0" id="guide3338"/>
    <sodipodi:guide position="2.0000044,1.9999785" orientation="0,18" id="guide3340"/>
    <sodipodi:guide position="20.000004,1.9999785" orientation="-18,0" id="guide3342"/>
    <sodipodi:guide position="20.000004,19.999979" orientation="0,-18" id="guide3344"/>
    <sodipodi:guide position="3.0000044,18.999979" orientation="16,0" id="guide3346"/>
    <sodipodi:guide position="3.0000044,2.9999785" orientation="0,16" id="guide3348"/>
    <sodipodi:guide position="19.000004,2.9999785" orientation="-16,0" id="guide3350"/>
    <sodipodi:guide position="17,19" orientation="0,-16" id="guide3352"/>
    <inkscape:grid type="xygrid" id="grid3354"/>
  </sodipodi:namedview>
  <metadata id="metadata3820">
    <rdf:RDF>
      <cc:Work rdf:about="">
        <dc:format>image/svg+xml</dc:format>
        <dc:type rdf:resource="http://purl.org/dc/dcmitype/StillImage"/>
        <dc:title/>
      </cc:Work>
    </rdf:RDF>
  </metadata>
  <g inkscape:label="Capa 1" inkscape:groupmode="layer" id="layer1" transform="translate(-461.71429,-525.79075)">
    <path style="opacity:1;fill:currentColor;fill-opacity:1;stroke:none" d="M 7 3 L 7 5 L 5 5 L 4 5 L 4 19 L 5 19 L 18 19 L 18 18 L 18 5 L 17 5 L 15 5 L 15 3 L 7 3 z M 5 6 L 6 6 L 6 8 L 16 8 L 16 6 L 17 6 L 17 18 L 5 18 L 5 6 z M 7 9 L 7 10 L 15 10 L 15 9 L 7 9 z M 7 12 L 7 13 L 13 13 L 13 12 L 7 12 z M 7 15 L 7 16 L 10 16 L 10 15 L 7 15 z " transform="translate(461.71429,525.79075)" id="rect3381" class="ColorScheme-Text"/>
  </g>
</svg>
